Newaita-dark/emblems/48/vcs-locally-modified.svg

<svg height="48" viewBox="0 0 48 48" width="48" xmlns="http://www.w3.org/2000/svg"><path d="m1239.251801 250.21234c-.787326 0-1.732118 0-2.519444 0-42.830558 1.574652-76.685595 36.689411-76.685595 79.519969v85.346185c-.157465 0-.31493 0-.472395.157465v2.204514c-252.88925 12.282293-443.579711 82.826741-576.165482 191.005392-146.127786 119.201222-217.302095 282.965119-222.970845 443.894642-11.494966 321.544114 233.048623 642.458367 599.627809 642.458367 28.658682.31493 55.427781-14.801737 69.914587-39.523787 14.486806-24.879515 14.486806-55.427781 0-80.307296-14.486806-24.72205-41.255905-39.838717-69.914587-39.523787-273.674667 0-448.93353-239.189769-440.430405-477.434747 4.251563-119.201222 53.223267-235.410603 164.393759-326.268073 99.832991-81.252087 253.20418-142.978479 476.017559-154.945841v73.063893c0 59.206947 62.198788 97.628477 115.107124 71.174309l320.126927-159.984731c58.577086-29.446008 58.577086-113.060075 0-142.506084l-320.126927-159.98473c-11.180035-5.511285-23.462327-8.503126-35.902085-8.34566zm0 0" fill="#424242" stroke="#424242" stroke-linecap="round" stroke-linejoin="round" stroke-width="309.921265" transform="scale(.0248071)"/><path d="m30.742188 6.207031c-.019532 0-.042969 0-.0625 0-1.0625.039063-1.902344.910157-1.902344 1.972657v2.117187c-.003906 0-.007813 0-.011719.003906v.054688c-6.273437.304687-11.003906 2.054687-14.292969 4.738281-3.625 2.957031-5.390625 7.019531-5.53125 11.011719-.285156 7.976562 5.78125 15.9375 14.875 15.9375.710938.007812 1.375-.367188 1.734375-.980469.359375-.617188.359375-1.375 0-1.992188-.359375-.613281-1.023437-.988281-1.734375-.980468-6.789062 0-11.136718-5.933594-10.925781-11.84375.105469-2.957032 1.320313-5.839844 4.078125-8.09375 2.476562-2.015625 6.28125-3.546875 11.808594-3.84375v1.8125c0 1.46875 1.542968 2.421875 2.855468 1.765625l7.941407-3.96875c1.453125-.730469 1.453125-2.804688 0-3.535157l-7.941407-3.96875c-.277343-.136718-.582031-.210937-.890624-.207031zm0 0" fill="#fafafa"/></svg>

<?xml version="1.0" encoding="UTF-8"?>
<svg xmlns="http://www.w3.org/2000/svg" xmlns:xlink="http://www.w3.org/1999/xlink" width="48px" height="48px" viewBox="0 0 48 48" version="1.1">
<g id="surface1">
<path style="fill-rule:nonzero;fill:rgb(25.882354%,25.882354%,25.882354%);fill-opacity:1;stroke-width:309.921265;stroke-linecap:round;stroke-linejoin:round;stroke:rgb(25.882354%,25.882354%,25.882354%);stroke-opacity:1;stroke-miterlimit:4;" d="M 1239.251801 250.21234 C 1238.464475 250.21234 1237.519683 250.21234 1236.732357 250.21234 C 1193.901799 251.786992 1160.046762 286.901751 1160.046762 329.732309 L 1160.046762 415.078494 C 1159.889297 415.078494 1159.731832 415.078494 1159.574367 415.235959 L 1159.574367 417.440473 C 906.685117 429.722766 715.994656 500.267214 583.408885 608.445865 C 437.281099 727.647087 366.10679 891.410984 360.43804 1052.340507 C 348.943074 1373.884621 593.486663 1694.798874 960.065849 1694.798874 C 988.724531 1695.113804 1015.49363 1679.997137 1029.980436 1655.275087 C 1044.467242 1630.395572 1044.467242 1599.847306 1029.980436 1574.967791 C 1015.49363 1550.245741 988.724531 1535.129074 960.065849 1535.444004 C 686.391182 1535.444004 511.132319 1296.254235 519.635444 1058.009257 C 523.887007 938.808035 572.858711 822.598654 684.029203 731.741184 C 783.862194 650.489097 937.233383 588.762705 1160.046762 576.795343 L 1160.046762 649.859236 C 1160.046762 709.066183 1222.24555 747.487713 1275.153886 721.033545 L 1595.280813 561.048814 C 1653.857899 531.602806 1653.857899 447.988739 1595.280813 418.54273 L 1275.153886 258.558 C 1263.973851 253.046715 1251.691559 250.054874 1239.251801 250.21234 Z M 1239.251801 250.21234 " transform="matrix(0.0248071,0,0,0.0248071,0,0)"/>
<path style=" stroke:none;fill-rule:nonzero;fill:rgb(98.039216%,98.039216%,98.039216%);fill-opacity:1;" d="M 30.742188 6.207031 C 30.722656 6.207031 30.699219 6.207031 30.679688 6.207031 C 29.617188 6.246094 28.777344 7.117188 28.777344 8.179688 L 28.777344 10.296875 C 28.773438 10.296875 28.769531 10.296875 28.765625 10.300781 L 28.765625 10.355469 C 22.492188 10.660156 17.761719 12.410156 14.472656 15.09375 C 10.847656 18.050781 9.082031 22.113281 8.941406 26.105469 C 8.65625 34.082031 14.722656 42.042969 23.816406 42.042969 C 24.527344 42.050781 25.191406 41.675781 25.550781 41.0625 C 25.910156 40.445312 25.910156 39.6875 25.550781 39.070312 C 25.191406 38.457031 24.527344 38.082031 23.816406 38.089844 C 17.027344 38.089844 12.679688 32.15625 12.890625 26.246094 C 12.996094 23.289062 14.210938 20.40625 16.96875 18.152344 C 19.445312 16.136719 23.25 14.605469 28.777344 14.308594 L 28.777344 16.121094 C 28.777344 17.589844 30.320312 18.542969 31.632812 17.886719 L 39.574219 13.917969 C 41.027344 13.1875 41.027344 11.113281 39.574219 10.382812 L 31.632812 6.414062 C 31.355469 6.277344 31.050781 6.203125 30.742188 6.207031 Z M 30.742188 6.207031 "/>
</g>
</svg>
